X:1
T:Dedication (Gilding), SM
T:Dedication (Gilding), SM
T:Edmund Gilding, 1762
T:Public Domain Courtesy of the Cyber Hymnal™
C:Edmund Gilding, 1762
Z:Public Domain
Z:Courtesy of the Cyber Hymnal™
%%score ( 1 2 ) 3
L:1/8
M:3/4
K:G
V:1 treble 
V:2 treble 
V:3 bass 
V:1
 [DG]2 | [EG]4 [GB]2 | ([EA]2 [DG]2) [DF]2 | [DG]4 [DA]2 | [DB]4 [Gd]2 | [Gc]4 [FB]2 | %6
 [FA]4 [DA]2 | [EA]4 [DB]2 | [Cc]4 [DB]2 | [EA]4 [B,G]2 | (G2 F2) D2 | [DG]4 [GB]2 | %12
 ([EA]2 [DG]2) [DF]2 | [DG]4 |] %14
V:2
 x2 | x6 | x6 | x6 | x6 | x6 | x6 | x6 | x6 | x6 | D4 D2 | x6 | x6 | x4 |] %14
V:3
 [G,B,]2 | [E,B,]4 [B,,D]2 | ([C,C]2 [D,B,]2) [D,A,]2 | [G,,B,]4 [D,F,]2 | [G,,G,]4 [B,,D]2 | %5
 [C,E]4 [G,D]2 | [D,D]4 [D,F,]2 | [C,A,]4 [B,,^G,]2 | [A,,A,]4 [B,,G,]2 | [C,C]4 [E,G,]2 | %10
 [D,A,]4 [D,F,]2 | [B,,G,]4 [G,,D]2 | ([C,C]2 [D,B,]2) [D,A,]2 | [G,B,]4 |] %14

